X:1
T:Title
%%score { 1 | ( 2 3 ) }
L:1/8
Q:1/4=58
M:6/8
K:C
V:1 treble nm="Grand Piano"
V:2 bass 
V:3 bass 
V:1
 [EG][CE][DF] [EG][_E^F][=EG] | [GB]2 [FA] .[EG]3 | [FA][E^G][FA] [Ec][DB][Ec] | %3
w: Adam~Geibel * * * * *|||
 [^Fd]2 [FA] .[=Fd]3 | [Ge]f[Ge] [Fd]e[Fd] | [Ec]d[Ec] .[DB]3 | [CA]AA [EG]G[_Ec] | %7
w: ||||
[M:7/8] [DB]2 [CA] [B,G]3 z |[M:3/4] GG GB AG | .[CEc]2 [Ec] .[EG]3 | AA A^c BA | %11
w: ||||
 .[DFd]2 [Fd] .[FA]3 | [FB][FB] [GB][Gc] [GB][Gc] | .[Ed]2 [CEG] .[CFA]3 | cA FD BA | %15
w: ||||
 AG d .[Ec]3 |] %16
w: |
V:2
 C,G,G, C,CC | F,CC C,CC | F,CC C,G,G, | z A,C [G,B,]G,G, | z AE, z[K:treble] G^G, | %5
 .A,3[K:bass] z3 | z[K:treble] CF[K:bass] z EA,, |[M:7/8] D,E,^F, [G,,D,G,]3 z | %8
[M:3/4][K:treble] [G,B,F][G,B,F] [G,B,F][G,DF] [G,CF][G,B,F] | z e [C,G,] .[C,C]3 | %10
 [A,^CG][A,CG] [A,CG][A,EG] [A,DG][A,CG] | z f[K:bass] [D,A,] .[D,D]3 | %12
 [G,D][G,D] [F,D][E,C] [E,C][E,C] | z[K:treble] c[K:bass] C, .F,3 | CA, F,D, [^F,A,_E][F,CE] | %15
 [G,CE]2 [G,B,F][K:bass] .[C,C]3 |] %16
V:3
 x6 | x6 | x6 | D,3 z3 | .C,3 .G,3[K:treble] | z F[K:bass]A,, [E,^G,]E,E, | %6
 [F,,F,]3[K:treble][K:bass] .C,3 |[M:7/8] x7 |[M:3/4][K:treble] x6 | C,2 z2 z2 | x6 | %11
 D,2[K:bass] z2 z2 | x6 | [C,_B,]2[K:treble][K:bass] z2 z2 | x6 | x3[K:bass] x3 |] %16

